X: 966
T: Hançer-i Ebrûsu Saplandı Dile
C: Asdik Ağa
O: Turkey
F: http://compmusic.upf.edu/node/140
N: kurdilihicazkar--sarki--kapali_curcuna--hancer-i_ebrusu--asdik_aga
N: makam= kurdilihicazkar
N: form= sarki
N: usul= kapali_curcuna = 10/8
M: 10/8
L: 1/16
K: C _B _e _A 
Q: 1/4=168
%%MIDI tuningsystem comma53
z4 f2g14  | e2d2 e2f4g2 f2e2 d2c2  | \
w:  Of   |  of   | 
c18z2  | a2g2 f2e2 d2=e2 f2g2 a2f2  | 
w:   |  of   | 
g18z2  | g4 a2g2 f2=e2 f2g4z2  | g6=b2 a2a2 g2g4f2  | \
w:  of   |  SAZ  |  Han çer_ *  i  *  eb  | 
f6f4f2 _1/4e2e2 d2c2  | 
w:  rû su  sap *  lan  | 
a2g2 f2a2 g2g8-g2  | =e2f2 d2e2 c2e2 f2g2 a2f2  | \
w:  dı  *  *  di *  le   |   | 
g18z2  | g4 a2g2 f2=e2 f2g4z2  | 
w:   |  SAZ  | 
a6a4a4a2 g2f2  | g4 a2=b4a2 g2g4z2  | \
w:  Gam ze  i  fet  |  tâ *  nı  ver *  di   | 
f6f4f2 e2e2 d2c2  | d2=e2 f2g2 =a2f2 _e2e4d2  | 
w:  vel ve le   |   | 
d18z2  | d4 b2=a2 g2f2 e2d4z2  | f6g4g2 c'2g6  | \
w:   |  SAZ  |  Gam ze  i  *  fet  | 
d4 =e2f4g2 f2e2 d2c2  | 
w:  tâ *  nı  ver *  di   | 
c4 B2d2 c2c8-c2  | _d2c2 B2g4f2 =e2=d2 c2B2  | \
w:  vel *  ve *  le   |   | 
c4 _d2c2 B2B2 =A2B4z2  | 
w:   | 
z4 _d2c2 B2B2 =A2B4z2  | c2d2 e2d2 e2d2 g2d4c2  | \
w:  SAZ  |  Of   | 
z4 e2d2 c2B2 A2G6  | 
w:  of   | 
z4 f2g4e2 d2c4z2  | G4 A2B4c2 B2A4G2  | \
w:  of   |  of   | 
G18z2  | z4 a2g2 f2f2 =e2f4z2  | 
w:  of   |  SAZ  | 
f6f4f4f4e2  | d4 =e2f4g2 f2_e2 d2c2  | \
w:  Bil mi yor  ah  |  vâ *  li mi  *  öl  | 
a2g2 f2a2 g2g8-g2  | =e2f2 d2e2 c2e2 f2g2 a2f2  | 
w:  sem  *  *  bi *  le   |   | 
g18z2  | g4 a2g2 f2=e2 f2g4z2  | a6a4a4a2 g2f2  | \
w:   |  SAZ  |  Gam ze  i  fet  | 
g4 a2=b4a2 g2g4z2  | 
w:  tâ *  nı  ver *  di   | 
f6f4f2 e2e2 d2c2  | d2=e2 f2g2 =a2f2 _e2e4d2  | \
w:  vel ve le   |   | 
d18z2  | d4 b2=a2 g2f2 e2d4z2  | 
w:   |  SAZ  | 
f6g4g2 c'2g6  | d4 =e2f4g2 f2e2 d2c2  | \
w:  Gam ze  i  *  fet  |  tâ *  nı  ver *  di   | 
c4 B2d2 c2c8-c2  | _d2c2 B2g4f2 =e2=d2 c2B2  | 
w:  vel *  ve *  le   |   | 
c4 _d2c2 B2B2 =A2B4z2  | z4 _d2c2 B2B2 =A2B4z2  | \
w:   |  SAZ  | 
c2d2 e2d2 e2d2 g2d4c2  | 
w:  Of   | 
z4 e2d2 c2B2 A2G6  | z4 f2g4e2 d2c4z2  | \
w:  of   |  of   | 
G4 A2B4c2 B2A4G2  | 
w:  of   | 
G18z2  | |


